icons/arrow-square-leftB.svg

<svg width="24" height="24" viewBox="0 0 24 24" fill="none" xmlns="http://www.w3.org/2000/svg">
<path d="M9 3H15C18.3 3 21 5.7 21 9V15C21 18.3 18.3 21 15 21H9C5.7 21 3 18.3 3 15V9C3 5.6 5.6 3 9 3Z" fill="black"/>
<path fill-rule="evenodd" clip-rule="evenodd" d="M9 3.75C6.01421 3.75 3.75 6.01421 3.75 9V15C3.75 17.8858 6.11421 20.25 9 20.25H15C17.8858 20.25 20.25 17.8858 20.25 15V9C20.25 6.11421 17.8858 3.75 15 3.75H9ZM2.25 9C2.25 5.18579 5.18579 2.25 9 2.25H15C18.7142 2.25 21.75 5.28579 21.75 9V15C21.75 18.7142 18.7142 21.75 15 21.75H9C5.28579 21.75 2.25 18.7142 2.25 15V9Z" fill="black"/>
<path d="M11.3 14.8L8.80002 12.3C8.60002 12.1 8.60002 11.8 8.80002 11.6L11.3 9.09998" fill="black"/>
<path fill-rule="evenodd" clip-rule="evenodd" d="M11.8304 8.56965C12.1232 8.86254 12.1232 9.33741 11.8304 9.63031L9.51068 11.95L11.8304 14.2696C12.1232 14.5625 12.1232 15.0374 11.8304 15.3303C11.5375 15.6232 11.0626 15.6232 10.7697 15.3303L8.26969 12.8303C7.7768 12.3374 7.7768 11.5625 8.26969 11.0696L10.7697 8.56965C11.0626 8.27675 11.5375 8.27675 11.8304 8.56965Z" fill="white"/>
<path fill-rule="evenodd" clip-rule="evenodd" d="M8.55005 12C8.55005 11.5858 8.88584 11.25 9.30005 11.25H15.3C15.7143 11.25 16.05 11.5858 16.05 12C16.05 12.4142 15.7143 12.75 15.3 12.75H9.30005C8.88584 12.75 8.55005 12.4142 8.55005 12Z" fill="white"/>
</svg>

<svg xmlns="http://www.w3.org/2000/svg" fill="none" viewBox="0 0 24 24">
  <path fill="#000" d="M9 3h6c3.3 0 6 2.7 6 6v6c0 3.3-2.7 6-6 6H9c-3.3 0-6-2.7-6-6V9c0-3.4 2.6-6 6-6Z"/>
  <path fill="#000" fill-rule="evenodd" d="M9 3.75C6.014 3.75 3.75 6.014 3.75 9v6c0 2.886 2.364 5.25 5.25 5.25h6c2.886 0 5.25-2.364 5.25-5.25V9c0-2.886-2.364-5.25-5.25-5.25H9ZM2.25 9c0-3.814 2.936-6.75 6.75-6.75h6c3.714 0 6.75 3.036 6.75 6.75v6c0 3.714-3.036 6.75-6.75 6.75H9c-3.714 0-6.75-3.036-6.75-6.75V9Z" clip-rule="evenodd"/>
  <path fill="#000" d="m11.3 14.8-2.5-2.5c-.2-.2-.2-.5 0-.7l2.5-2.5"/>
  <path fill="#fff" fill-rule="evenodd" d="M11.83 8.57a.75.75 0 0 1 0 1.06l-2.32 2.32 2.32 2.32a.75.75 0 0 1-1.06 1.06l-2.5-2.5a1.233 1.233 0 0 1 0-1.76l2.5-2.5a.75.75 0 0 1 1.06 0Z" clip-rule="evenodd"/>
  <path fill="#fff" fill-rule="evenodd" d="M8.55 12a.75.75 0 0 1 .75-.75h6a.75.75 0 1 1 0 1.5h-6a.75.75 0 0 1-.75-.75Z" clip-rule="evenodd"/>
</svg>
